X:179
T:UpDowney
M:4/4
L:1/8
C:Tola Custy
S:Calico
R:Reel
K:AMix
D | EFGA ~A2 ed |  ABGB AGFA | EFGA ~A2 ef|  gfef {a}b2 z D| EFGA ~A2 ed |
|ABGB AGFA |1 E^DEG GFGA |BA (3Bcd edB:|2 EFGA ~A2 ed |BAGF EB,B,B,||  
gfeg fegf | egfe a4 | gfegfegf | egfe B4 | 
gfeg fegf | egfe a4 | bagf agfg |1 e4 e3 f :|2 e4 e3||
